html/images/quality_button.svg

<svg width="48" height="40" viewBox="0 0 48 40" fill="none" xmlns="http://www.w3.org/2000/svg">
  <path
    d="M42.3938 8.53564C41.1774 8.52335 40.0058 8.99349 39.1351 9.84302C38.2644 10.6925 37.7655 11.8522 37.7479 13.0686C37.751 13.7086 37.892 14.3405 38.1612 14.9211C38.4304 15.5018 38.8215 16.0176 39.3079 16.4336L33.4479 18.4888L25.1089 8.80566C26.0042 8.50693 26.784 7.93646 27.3396 7.17358C27.8953 6.41071 28.1992 5.49331 28.2089 4.54956C28.1837 3.33432 27.6832 2.17743 26.8149 1.3269C25.9465 0.476377 24.7794 0 23.5639 0C22.3484 0 21.1813 0.476377 20.3129 1.3269C19.4446 2.17743 18.9441 3.33432 18.9189 4.54956C18.9285 5.48395 19.2261 6.39274 19.771 7.15186C20.316 7.91097 21.0817 8.48368 21.9639 8.79175L13.6119 18.4917L7.75396 16.4368C8.24003 16.0206 8.63074 15.5045 8.89959 14.9238C9.16843 14.3432 9.30908 13.7116 9.31194 13.0718C9.33497 12.195 9.10937 11.3296 8.6613 10.5757C8.21324 9.82172 7.56095 9.2099 6.77983 8.81104C5.99872 8.41217 5.12072 8.2424 4.24724 8.32153C3.37376 8.40067 2.54051 8.72555 1.8438 9.2583C1.14709 9.79105 0.61538 10.5101 0.310108 11.3323C0.00483695 12.1545 -0.0615238 13.0462 0.118702 13.9045C0.298928 14.7629 0.718349 15.5526 1.32854 16.1826C1.93873 16.8126 2.7148 17.2571 3.56694 17.4646V29.7556C3.5743 29.8376 3.59101 29.9184 3.61687 29.9966C3.58394 30.1233 3.56721 30.2538 3.56694 30.3848C3.56694 34.7968 21.4859 34.9268 23.5289 34.9268C25.5719 34.9268 43.4909 34.7978 43.4909 30.3848C43.4902 30.2539 43.4733 30.1234 43.4408 29.9966C43.4685 29.9189 43.4853 29.8379 43.4909 29.7556V17.4646C44.5898 17.2244 45.5595 16.5828 46.2103 15.6653C46.861 14.7478 47.1458 13.6204 47.0091 12.5039C46.8724 11.3874 46.3239 10.3621 45.471 9.62866C44.6181 8.89526 43.5223 8.50653 42.3979 8.53857L42.3938 8.53564ZM21.1749 4.55176C21.1633 4.07755 21.2934 3.61062 21.5485 3.21069C21.8036 2.81076 22.172 2.49591 22.6069 2.3064C23.0417 2.11688 23.5232 2.06132 23.9898 2.14673C24.4564 2.23214 24.887 2.45463 25.2265 2.78589C25.566 3.11715 25.7991 3.542 25.8959 4.00635C25.9928 4.4707 25.9491 4.95345 25.7703 5.39282C25.5916 5.8322 25.2859 6.20831 24.8924 6.47314C24.4988 6.73798 24.0353 6.8795 23.561 6.87964C22.9362 6.88605 22.3343 6.64481 21.8871 6.2085C21.44 5.77218 21.1838 5.17647 21.1749 4.55176ZM13.5849 20.8276C13.8019 20.9026 14.0362 20.9113 14.2581 20.8525C14.48 20.7938 14.6794 20.6701 14.8309 20.4976L23.5309 10.3977L32.2309 20.4976C32.3821 20.6702 32.5813 20.7938 32.803 20.8528C33.0248 20.9117 33.2589 20.9033 33.4759 20.8286L41.2339 18.1038V28.0408C36.3489 25.9188 25.1249 25.8406 23.5339 25.8406C21.9429 25.8406 10.7149 25.9198 5.83391 28.0408V18.1038L13.5849 20.8276ZM23.5279 32.7166C14.8279 32.7166 9.27888 31.7057 6.97087 30.8547C6.6198 30.7373 6.28407 30.578 5.97087 30.3806C6.69287 29.8596 9.03194 29.1487 12.9369 28.6487C19.9723 27.844 27.0765 27.844 34.1119 28.6487C38.0119 29.1487 40.357 29.8596 41.077 30.3806C40.7663 30.5794 40.4321 30.7388 40.082 30.8547C37.78 31.7037 32.2359 32.7166 23.5279 32.7166ZM2.28093 13.0686C2.2698 12.5945 2.40025 12.1279 2.65557 11.7283C2.91089 11.3286 3.27952 11.0139 3.71441 10.8247C4.14929 10.6355 4.63063 10.5801 5.0971 10.6658C5.56356 10.7514 5.99399 10.9743 6.3333 11.3057C6.67261 11.637 6.90543 12.0618 7.00212 12.5261C7.09882 12.9904 7.05498 13.4731 6.87615 13.9124C6.69732 14.3516 6.39159 14.7277 5.9981 14.9924C5.6046 15.2572 5.14118 15.3986 4.66692 15.3987C4.04176 15.4054 3.43941 15.1638 2.99212 14.7271C2.54482 14.2903 2.28911 13.6937 2.28093 13.0686ZM42.3938 15.3987C41.9359 15.3875 41.4914 15.2414 41.116 14.9788C40.7406 14.7162 40.451 14.3487 40.2834 13.9224C40.1158 13.496 40.0776 13.0297 40.1738 12.5818C40.2699 12.1339 40.496 11.7241 40.8238 11.4041C41.1516 11.084 41.5664 10.8677 42.0165 10.7822C42.4666 10.6968 42.9319 10.7459 43.3542 10.9236C43.7765 11.1013 44.137 11.3997 44.3906 11.7812C44.6442 12.1628 44.7796 12.6105 44.78 13.0686C44.7713 13.6935 44.5153 14.2895 44.068 14.7261C43.6208 15.1626 43.0188 15.4041 42.3938 15.3977V15.3987Z"
    fill="#F16D7F" />
</svg>

<svg xmlns="http://www.w3.org/2000/svg" width="48" height="40" fill="none" xmlns:v="https://vecta.io/nano"><path d="M42.394 8.536a4.6 4.6 0 0 0-4.646 4.533c.003.64.144 1.272.413 1.852s.66 1.097 1.147 1.512l-5.86 2.055-8.339-9.683c.895-.299 1.675-.869 2.231-1.632s.86-1.68.869-2.624c-.025-1.215-.526-2.372-1.394-3.223S24.779 0 23.564 0s-2.383.476-3.251 1.327-1.369 2.007-1.394 3.223c.01.934.307 1.843.852 2.602s1.311 1.332 2.193 1.64l-8.352 9.7-5.858-2.055c.486-.416.877-.932 1.146-1.513s.409-1.212.412-1.852c.023-.877-.203-1.742-.651-2.496S7.561 9.21 6.78 8.811s-1.659-.569-2.533-.49-1.707.404-2.403.937S.615 10.51.31 11.332s-.372 1.714-.191 2.572.6 1.648 1.21 2.278 1.386 1.075 2.238 1.282v12.291c.007.082.024.163.05.241-.033.127-.05.257-.05.388 0 4.412 17.919 4.542 19.962 4.542s19.962-.129 19.962-4.542a1.6 1.6 0 0 0-.05-.388.9.9 0 0 0 .05-.241V17.465c1.099-.24 2.069-.882 2.719-1.799s.936-2.045.799-3.161-.685-2.142-1.538-2.875-1.949-1.122-3.073-1.09l-.004-.003zM21.175 4.552c-.012-.474.118-.941.374-1.341s.624-.715 1.058-.904.916-.245 1.383-.16.897.308 1.237.639.573.756.669 1.22.053.947-.126 1.386-.484.815-.878 1.08-.857.406-1.331.407a2.36 2.36 0 0 1-2.386-2.328zm-7.59 16.276c.217.075.451.084.673.025s.421-.182.573-.355l8.7-10.1 8.7 10.1c.151.173.35.296.572.355s.456.051.673-.024l7.758-2.725v9.937c-4.885-2.122-16.109-2.2-17.7-2.2s-12.819.079-17.7 2.2v-9.937l7.751 2.724zm9.943 11.889c-8.7 0-14.249-1.011-16.557-1.862a4.63 4.63 0 0 1-1-.474c.722-.521 3.061-1.232 6.966-1.732a93.17 93.17 0 0 1 21.175 0c3.9.5 6.245 1.211 6.965 1.732a4.43 4.43 0 0 1-.995.474c-2.302.849-7.846 1.862-16.554 1.862zM2.281 13.069c-.011-.474.119-.941.375-1.34s.624-.714 1.059-.904.916-.245 1.383-.159.897.308 1.236.64.572.756.669 1.22.053.947-.126 1.386-.485.815-.878 1.08-.857.406-1.331.406a2.36 2.36 0 0 1-2.386-2.33zm40.113 2.33a2.33 2.33 0 0 1-2.11-1.476 2.33 2.33 0 0 1 .54-2.518 2.33 2.33 0 0 1 2.53-.48 2.33 2.33 0 0 1 1.426 2.145 2.36 2.36 0 0 1-2.386 2.329v.001z" fill="#f16d7f"/></svg>
